X: 32389
T: Piper On Horseback, The
R: reel
M: 4/4
K: Dmajor
F3 d cAAB|cAdB cAGE|F3 d cAAB|cAGE EDDE|
F3 d cAAB|cAdB cAGE|F3 d cAAB|cAGE EDCE|
D3 d cAAB|cAdB cAGE|F3 d cAAB|cAGE EDCE|
D3 d cAAB|cAdB cAGE|F3 d cAAB|c2 AG EDDA||
defg afdf|efdB cAAc|d2 e/f/g a2 dB|ABGE EDDA|
defg afdf|efdB cAAf|affe fded|A/B/A GE EDDA|
defg a3 f|e3 d cAAc|defg afdB|A/B/A GE EDCE|
Defg afdf|efdB cA a2-|af g/f/e fded|A/B/A GE EDDE||

